X: 27186
T: Miss Monaghan
R: reel
M: 4/4
K: Dmajor
|:FE|D2 FD EFGE|F2 AF GABA|d2 dB ABde|fedf e2 (3gfe|
D2 FD EFGE|F2 AF GABA|d2 dB ABdB|AFEF D2:|
|:fg|agab afdf|gfge dBAB|dcdB ABde|fedf e2 fg|
agab afdf|gfge dBAB|dcdB ABdB|AFEF D2:|

